public/images/icon-5.svg

<svg width="52" height="52" viewBox="0 0 52 52" fill="none" xmlns="http://www.w3.org/2000/svg">
<g filter="url(#filter0_d_1957_25044)">
<rect x="2" y="1" width="48" height="48" rx="10" fill="white" shape-rendering="crispEdges"/>
<rect x="2.5" y="1.5" width="47" height="47" rx="9.5" stroke="#EAECF0" shape-rendering="crispEdges"/>
</g>
<path d="M34.3424 16.5847L27.4983 14.9425C25.0157 14.3468 23.1808 15.3017 22.5134 17.5321L20.2531 25.0863C19.5748 27.3533 20.6395 28.9725 23.122 29.5682L29.9662 31.2105C32.4887 31.8157 34.274 30.8803 34.9524 28.6133L37.2127 21.0592C37.8801 18.8287 36.865 17.19 34.3424 16.5847Z" fill="url(#paint0_linear_1957_25044)"/>
<g opacity="0.5" filter="url(#filter1_f_1957_25044)">
<path d="M32.5579 18.6536L27.8949 17.5347C26.2035 17.1289 24.9534 17.7794 24.4987 19.299L22.9587 24.4458C22.4965 25.9903 23.2219 27.0935 24.9133 27.4994L29.5763 28.6182C31.2949 29.0306 32.5113 28.3933 32.9735 26.8488L34.5135 21.7021C34.9682 20.1824 34.2765 19.066 32.5579 18.6536Z" fill="#0E4DC7"/>
</g>
<g filter="url(#filter2_b_1957_25044)">
<mask id="path-5-outside-1_1957_25044" maskUnits="userSpaceOnUse" x="12" y="17.0547" width="21" height="19" fill="black">
<rect fill="white" x="12" y="17.0547" width="21" height="19"/>
<path d="M26.9489 18.0547H18.5154C15.2178 18.0547 13 20.1278 13 23.2114V30.3281C13 33.403 15.2178 35.4761 18.5154 35.4761H26.9489C30.2465 35.4761 32.4545 33.403 32.4545 30.3281V23.2114C32.4545 20.1278 30.2465 18.0547 26.9489 18.0547Z"/>
</mask>
<path d="M26.9489 18.0547H18.5154C15.2178 18.0547 13 20.1278 13 23.2114V30.3281C13 33.403 15.2178 35.4761 18.5154 35.4761H26.9489C30.2465 35.4761 32.4545 33.403 32.4545 30.3281V23.2114C32.4545 20.1278 30.2465 18.0547 26.9489 18.0547Z" fill="#4780F0"/>
<path d="M26.9489 18.4072C27.1436 18.4072 27.3014 18.2494 27.3014 18.0547C27.3014 17.86 27.1436 17.7022 26.9489 17.7022V18.4072ZM26.9489 17.7022C26.7542 17.7022 26.5964 17.86 26.5964 18.0547C26.5964 18.2494 26.7542 18.4072 26.9489 18.4072V17.7022ZM26.9489 17.7022H18.5154V18.4072H26.9489V17.7022ZM18.5154 17.7022C16.7926 17.7022 15.3227 18.2447 14.2804 19.2192C13.2359 20.1957 12.6475 21.5813 12.6475 23.2114H13.3525C13.3525 21.758 13.873 20.5652 14.7619 19.7342C15.6528 18.9013 16.9406 18.4072 18.5154 18.4072V17.7022ZM12.6475 23.2114V30.3281H13.3525V23.2114H12.6475ZM12.6475 30.3281C12.6475 31.9542 13.2361 33.3376 14.2805 34.3129C15.3228 35.2862 16.7926 35.8287 18.5154 35.8287V35.1236C16.9406 35.1236 15.6527 34.6295 14.7617 33.7976C13.8728 32.9675 13.3525 31.7769 13.3525 30.3281H12.6475ZM18.5154 35.8287H26.9489V35.1236H18.5154V35.8287ZM26.9489 35.8287C28.6717 35.8287 30.1392 35.2861 31.1792 34.3126C32.2212 33.3371 32.8071 31.9537 32.8071 30.3281H32.102C32.102 31.7774 31.5838 32.968 30.6974 33.7979C29.8089 34.6296 28.5236 35.1236 26.9489 35.1236V35.8287ZM32.8071 30.3281V23.2114H32.102V30.3281H32.8071ZM32.8071 23.2114C32.8071 21.5818 32.2214 20.1962 31.1794 19.2195C30.1393 18.2447 28.6717 17.7022 26.9489 17.7022V18.4072C28.5236 18.4072 29.8088 18.9012 30.6972 19.7339C31.5836 20.5647 32.102 21.7575 32.102 23.2114H32.8071Z" fill="url(#paint1_linear_1957_25044)" mask="url(#path-5-outside-1_1957_25044)"/>
</g>
<g filter="url(#filter3_bd_1957_25044)">
<mask id="path-7-inside-2_1957_25044" fill="white">
<path d="M21.574 29.5925C21.3561 29.5925 21.1382 29.5185 20.9718 29.3695L18.6636 27.3025C18.3309 27.0046 18.3309 26.522 18.6636 26.225C18.9962 25.927 19.5342 25.9262 19.8668 26.2241L21.574 27.7528L25.5894 24.157C25.9221 23.8591 26.46 23.8591 26.7926 24.157C27.1253 24.4549 27.1253 24.9375 26.7926 25.2354L22.1761 29.3695C22.0097 29.5185 21.7919 29.5925 21.574 29.5925Z"/>
</mask>
<path d="M21.574 29.5925C21.3561 29.5925 21.1382 29.5185 20.9718 29.3695L18.6636 27.3025C18.3309 27.0046 18.3309 26.522 18.6636 26.225C18.9962 25.927 19.5342 25.9262 19.8668 26.2241L21.574 27.7528L25.5894 24.157C25.9221 23.8591 26.46 23.8591 26.7926 24.157C27.1253 24.4549 27.1253 24.9375 26.7926 25.2354L22.1761 29.3695C22.0097 29.5185 21.7919 29.5925 21.574 29.5925Z" fill="url(#paint2_linear_1957_25044)"/>
<path d="M18.6636 26.225L18.7105 26.2775L18.7106 26.2775L18.6636 26.225ZM21.574 27.7528L21.5269 27.8053L21.574 27.8475L21.621 27.8053L21.574 27.7528ZM26.7926 25.2354L26.7456 25.1829L26.7926 25.2354ZM22.1761 29.3695L22.2231 29.422L22.1761 29.3695ZM21.574 29.522C21.3716 29.522 21.171 29.4532 21.0189 29.317L20.9248 29.422C21.1054 29.5837 21.3405 29.663 21.574 29.663V29.522ZM21.0189 29.317L18.7106 27.2499L18.6165 27.355L20.9248 29.422L21.0189 29.317ZM18.7106 27.2499C18.4092 26.98 18.4093 26.5465 18.7105 26.2775L18.6166 26.1724C18.2525 26.4975 18.2526 27.0291 18.6165 27.355L18.7106 27.2499ZM18.7106 26.2775C19.0166 26.0035 19.514 26.0028 19.8198 26.2766L19.9139 26.1716C19.5543 25.8496 18.9759 25.8506 18.6165 26.1724L18.7106 26.2775ZM19.8198 26.2766L21.5269 27.8053L21.621 27.7003L19.9139 26.1716L19.8198 26.2766ZM21.621 27.8053L25.6364 24.2095L25.5424 24.1045L21.5269 27.7003L21.621 27.8053ZM25.6364 24.2095C25.9423 23.9356 26.4397 23.9356 26.7456 24.2095L26.8397 24.1045C26.4802 23.7826 25.9018 23.7826 25.5424 24.1045L25.6364 24.2095ZM26.7456 24.2095C27.047 24.4794 27.047 24.913 26.7456 25.1829L26.8397 25.2879C27.2036 24.962 27.2036 24.4304 26.8397 24.1045L26.7456 24.2095ZM26.7456 25.1829L22.1291 29.317L22.2231 29.422L26.8397 25.2879L26.7456 25.1829ZM22.1291 29.317C21.9769 29.4532 21.7763 29.522 21.574 29.522V29.663C21.8074 29.663 22.0426 29.5837 22.2231 29.422L22.1291 29.317Z" fill="url(#paint3_linear_1957_25044)" fill-opacity="0.5" mask="url(#path-7-inside-2_1957_25044)"/>
</g>
<defs>
<filter id="filter0_d_1957_25044" x="0" y="0" width="52" height="52" filterUnits="userSpaceOnUse" color-interpolation-filters="sRGB">
<feFlood flood-opacity="0" result="BackgroundImageFix"/>
<feColorMatrix in="SourceAlpha" type="matrix" values="0 0 0 0 0 0 0 0 0 0 0 0 0 0 0 0 0 0 127 0" result="hardAlpha"/>
<feOffset dy="1"/>
<feGaussianBlur stdDeviation="1"/>
<feComposite in2="hardAlpha" operator="out"/>
<feColorMatrix type="matrix" values="0 0 0 0 0.0627451 0 0 0 0 0.0941176 0 0 0 0 0.156863 0 0 0 0.05 0"/>
<feBlend mode="normal" in2="BackgroundImageFix" result="effect1_dropShadow_1957_25044"/>
<feBlend mode="normal" in="SourceGraphic" in2="effect1_dropShadow_1957_25044" result="shape"/>
</filter>
<filter id="filter1_f_1957_25044" x="17.885" y="12.4808" width="21.6987" height="21.1947" filterUnits="userSpaceOnUse" color-interpolation-filters="sRGB">
<feFlood flood-opacity="0" result="BackgroundImageFix"/>
<feBlend mode="normal" in="SourceGraphic" in2="BackgroundImageFix" result="shape"/>
<feGaussianBlur stdDeviation="2.46763" result="effect1_foregroundBlur_1957_25044"/>
</filter>
<filter id="filter2_b_1957_25044" x="4.18799" y="9.24267" width="37.0811" height="35.0459" filterUnits="userSpaceOnUse" color-interpolation-filters="sRGB">
<feFlood flood-opacity="0" result="BackgroundImageFix"/>
<feGaussianBlur in="BackgroundImageFix" stdDeviation="4.23023"/>
<feComposite in2="SourceAlpha" operator="in" result="effect1_backgroundBlur_1957_25044"/>
<feBlend mode="normal" in="SourceGraphic" in2="effect1_backgroundBlur_1957_25044" result="shape"/>
</filter>
<filter id="filter3_bd_1957_25044" x="13.1263" y="18.6458" width="19.2045" height="16.2338" filterUnits="userSpaceOnUse" color-interpolation-filters="sRGB">
<feFlood flood-opacity="0" result="BackgroundImageFix"/>
<feGaussianBlur in="BackgroundImageFix" stdDeviation="2.64389"/>
<feComposite in2="SourceAlpha" operator="in" result="effect1_backgroundBlur_1957_25044"/>
<feColorMatrix in="SourceAlpha" type="matrix" values="0 0 0 0 0 0 0 0 0 0 0 0 0 0 0 0 0 0 127 0" result="hardAlpha"/>
<feOffset dx="1.76259" dy="1.76259"/>
<feGaussianBlur stdDeviation="1.76259"/>
<feColorMatrix type="matrix" values="0 0 0 0 0.055191 0 0 0 0 0.300014 0 0 0 0 0.779167 0 0 0 0.81 0"/>
<feBlend mode="normal" in2="effect1_backgroundBlur_1957_25044" result="effect2_dropShadow_1957_25044"/>
<feBlend mode="normal" in="SourceGraphic" in2="effect2_dropShadow_1957_25044" result="shape"/>
</filter>
<linearGradient id="paint0_linear_1957_25044" x1="38.2696" y1="17.5271" x2="24.2852" y2="27.0847" gradientUnits="userSpaceOnUse">
<stop stop-color="#4780F0"/>
<stop offset="1" stop-color="#0E4DC7"/>
</linearGradient>
<linearGradient id="paint1_linear_1957_25044" x1="16.0968" y1="20.0843" x2="26.8925" y2="35.0153" gradientUnits="userSpaceOnUse">
<stop stop-color="white" stop-opacity="0.25"/>
<stop offset="1" stop-color="white" stop-opacity="0"/>
</linearGradient>
<linearGradient id="paint2_linear_1957_25044" x1="26.4304" y1="24.9555" x2="16.8331" y2="25.4326" gradientUnits="userSpaceOnUse">
<stop stop-color="#8EB4FF"/>
<stop offset="1" stop-color="#8EB4FF"/>
</linearGradient>
<linearGradient id="paint3_linear_1957_25044" x1="19.3435" y1="25.8319" x2="26.6696" y2="25.8936" gradientUnits="userSpaceOnUse">
<stop stop-color="#8EB4FF"/>
<stop offset="1" stop-color="#8EB4FF"/>
</linearGradient>
</defs>
</svg>

<?xml version="1.0" encoding="UTF-8"?>
<svg id="Layer_1" xmlns="http://www.w3.org/2000/svg" version="1.1" xmlns:xlink="http://www.w3.org/1999/xlink" viewBox="0 0 52 52">
  <!-- Generator: Adobe Illustrator 30.0.0, SVG Export Plug-In . SVG Version: 2.1.1 Build 123)  -->
  <defs>
    <style>
      .st0 {
        fill: none;
        stroke: #eaecf0;
      }

      .st1 {
        mask: url(#mask-1);
      }

      .st2 {
        fill: url(#linear-gradient1);
        fill-opacity: .5;
      }

      .st3 {
        fill: #fff;
      }

      .st4 {
        mask: url(#mask);
      }

      .st5 {
        fill: #6b1aff;
      }

      .st6 {
        fill: #3f00c9;
      }

      .st7 {
        fill: url(#linear-gradient);
      }
    </style>
    <mask id="mask" x="12" y="17.05" width="21" height="19" maskUnits="userSpaceOnUse">
      <g id="path-5-outside-1_1957_25044">
        <rect class="st3" x="12" y="17.05" width="21" height="19"/>
        <path d="M26.95,18.05h-8.43c-3.3,0-5.52,2.07-5.52,5.16v7.12c0,3.07,2.22,5.15,5.52,5.15h8.43c3.3,0,5.51-2.07,5.51-5.15v-7.12c0-3.08-2.21-5.16-5.51-5.16Z"/>
      </g>
    </mask>
    <linearGradient id="linear-gradient" x1="17.28" y1="34.77" x2="28.07" y2="19.84" gradientTransform="translate(0 54) scale(1 -1)" gradientUnits="userSpaceOnUse">
      <stop offset="0" stop-color="#fff" stop-opacity=".25"/>
      <stop offset="1" stop-color="#fff" stop-opacity="0"/>
    </linearGradient>
    <mask id="mask-1" x="18.34" y="23.86" width="8.77" height="5.8" maskUnits="userSpaceOnUse">
      <g id="path-7-inside-2_1957_25044">
        <path class="st3" d="M21.57,29.59c-.22,0-.44-.07-.6-.22l-2.31-2.07c-.33-.3-.33-.78,0-1.08.33-.3.87-.3,1.2,0l1.71,1.53,4.02-3.6c.33-.3.87-.3,1.2,0,.33.3.33.78,0,1.08l-4.62,4.13c-.17.15-.38.22-.6.22Z"/>
      </g>
    </mask>
    <linearGradient id="linear-gradient1" x1="19.34" y1="27.28" x2="26.66" y2="27.21" gradientTransform="translate(0 54) scale(1 -1)" gradientUnits="userSpaceOnUse">
      <stop offset="0" stop-color="#8eb4ff"/>
      <stop offset="1" stop-color="#8eb4ff"/>
    </linearGradient>
  </defs>
  <g>
    <rect class="st3" x="2" y="1" width="48" height="48" rx="10" ry="10" shape-rendering="crispEdges"/>
    <rect class="st0" x="2.5" y="1.5" width="47" height="47" rx="9.5" ry="9.5" shape-rendering="crispEdges"/>
  </g>
  <path class="st5" d="M34.34,16.58l-6.84-1.64c-2.48-.6-4.32.36-4.98,2.59l-2.26,7.55c-.68,2.27.39,3.89,2.87,4.48l6.84,1.64c2.52.61,4.31-.33,4.99-2.6l2.26-7.55c.67-2.23-.35-3.87-2.87-4.47Z"/>
  <path class="st6" d="M32.56,18.65l-4.66-1.12c-1.69-.41-2.94.24-3.4,1.76l-1.54,5.15c-.46,1.54.26,2.65,1.95,3.05l4.66,1.12c1.72.41,2.93-.22,3.4-1.77l1.54-5.15c.45-1.52-.24-2.64-1.96-3.05Z"/>
  <g>
    <path class="st5" d="M26.95,18.05h-8.43c-3.3,0-5.52,2.07-5.52,5.16v7.12c0,3.07,2.22,5.15,5.52,5.15h8.43c3.3,0,5.51-2.07,5.51-5.15v-7.12c0-3.08-2.21-5.16-5.51-5.16Z"/>
    <g class="st4">
      <path class="st7" d="M26.95,18.41c.19,0,.35-.16.35-.35s-.16-.35-.35-.35v.7ZM26.95,17.7c-.19,0-.35.16-.35.35s.16.35.35.35v-.7ZM26.95,17.7h-8.43v.7h8.43v-.7ZM18.52,17.7c-1.72,0-3.19.54-4.23,1.52-1.04.98-1.63,2.36-1.63,3.99h.7c0-1.45.52-2.65,1.41-3.48.89-.83,2.18-1.33,3.75-1.33v-.7ZM12.65,23.21v7.12h.7v-7.12h-.7ZM12.65,30.33c0,1.63.59,3.01,1.63,3.98,1.04.97,2.51,1.52,4.23,1.52v-.71c-1.57,0-2.86-.49-3.75-1.33-.89-.83-1.41-2.02-1.41-3.47h-.7ZM18.52,35.83h8.43v-.71h-8.43v.71ZM26.95,35.83c1.72,0,3.19-.54,4.23-1.52,1.04-.98,1.63-2.36,1.63-3.98h-.71c0,1.45-.52,2.64-1.4,3.47-.89.83-2.17,1.33-3.75,1.33v.71ZM32.81,30.33v-7.12h-.71v7.12h.71ZM32.81,23.21c0-1.63-.59-3.02-1.63-3.99-1.04-.97-2.51-1.52-4.23-1.52v.7c1.57,0,2.86.49,3.75,1.33.89.83,1.4,2.02,1.4,3.48h.71Z"/>
    </g>
  </g>
  <g>
    <path class="st6" d="M21.57,29.59c-.22,0-.44-.07-.6-.22l-2.31-2.07c-.33-.3-.33-.78,0-1.08.33-.3.87-.3,1.2,0l1.71,1.53,4.02-3.6c.33-.3.87-.3,1.2,0,.33.3.33.78,0,1.08l-4.62,4.13c-.17.15-.38.22-.6.22Z"/>
    <g class="st1">
      <path class="st2" d="M18.66,26.23l.05.05h0l-.05-.05ZM21.57,27.75l-.05.05.05.04.05-.04-.05-.05ZM26.79,25.24l-.05-.05.05.05ZM22.18,29.37l.05.05-.05-.05ZM21.57,29.52c-.2,0-.4-.07-.56-.2l-.09.11c.18.16.42.24.65.24v-.14ZM21.02,29.32l-2.31-2.07-.09.11,2.31,2.07.09-.11ZM18.71,27.25c-.3-.27-.3-.7,0-.97l-.09-.11c-.36.33-.36.86,0,1.18l.09-.11ZM18.71,26.28c.31-.27.8-.27,1.11,0l.09-.1c-.36-.32-.94-.32-1.3,0l.09.11ZM19.82,26.28l1.71,1.53.09-.1-1.71-1.53-.09.1ZM21.62,27.81l4.02-3.6-.09-.1-4.02,3.6.09.1ZM25.64,24.21c.31-.27.8-.27,1.11,0l.09-.1c-.36-.32-.94-.32-1.3,0l.09.1ZM26.75,24.21c.3.27.3.7,0,.97l.09.11c.36-.33.36-.86,0-1.18l-.09.1ZM26.75,25.18l-4.62,4.13.09.11,4.62-4.13-.09-.11ZM22.13,29.32c-.15.14-.35.2-.56.2v.14c.23,0,.47-.08.65-.24l-.09-.11Z"/>
    </g>
  </g>
</svg>
